X: 305575
T: CANTON HORNPIPE
C: By Wm. G. Whipple
%R: hornpipe, reel
B: Elias Howe "The Musician's Companion" Part 3 1844 p.65 #3
S: http://imslp.org/wiki/The_Musician's_Companion_(Howe,_Elias)
S: https://archive.org/stream/firstthirdpartof03howe/#page/66/mode/1up
Z: 2015 John Chambers <jc:trillian.mit.edu>
N: The 1st strain has too many notes; not fixed. Adjust the pickup or ending however you like.
M: 2/4
L: 1/16
K: Bb
% - - - - - - - - - - - - - - - - - - - - - - - - -
B,2 |\
B,CDE FBAB | CDEF Gc=Bc | cGGA Bcde | fgfd ecdB |\
B,CDE FBAB | CDEF Gc=Bc | cGGA Bcde | fdec (dB)B2 :|
|: F2 |\
Bcde fgfd | cdef gbab | bagf gfdf | edcB Ac(Dc) |\
Bcde fgfd | cdef gbab | bagf gfdf | gecA B2 :|
% - - - - - - - - - - - - - - - - - - - - - - - - -


